X:611
T: WAS SOLL DAS BEDEUTEN
N: E1947
O: Europa, Mitteleuropa, Deutschland, Schlesien; Maehren
R: geistlich, Fest - Lied, Weihnachten
M: 3/4
L: 1/8
K: Bb
Bc | d2d2cd | e2e2
de | f2f2ed | c4
Bc | d2d2cd | e2e2
de | f2f2ed | c6 |
c2cBce | d4z2 |
d2dcde | c4
ge | d2f2ed | c2e2
dc | Bcd2c2 | B4

@@@ Tune index: 5295
